assets/icons/qvision/publish.svg

<svg xmlns="http://www.w3.org/2000/svg" height="24" viewBox="0 0 24 24" width="24"><path d="M0 0h24v24H0z" fill="none"/><path d="M5 4v2h14V4H5zm0 10h4v6h6v-6h4l-7-7-7 7z"/></svg>

<svg width="24" height="24" viewBox="0 0 24 24" fill="none" xmlns="http://www.w3.org/2000/svg">
<g clip-path="url(#clip0_147_2739)">
<path d="M5 4V6H19V4H5ZM5 14H9V20H15V14H19L12 7L5 14Z" fill="#323232"/>
</g>
<defs>
<clipPath id="clip0_147_2739">
<rect width="24" height="24" fill="white"/>
</clipPath>
</defs>
</svg>
